svg/head_cog.svg

<svg xmlns="http://www.w3.org/2000/svg" viewBox="0 0 24 24"><path d="M13 8.58c.78 0 1.44.61 1.44 1.42s-.66 1.44-1.44 1.44-1.42-.66-1.42-1.44.61-1.42 1.42-1.42M13 3c3.88 0 7 3.14 7 7 0 2.8-1.63 5.19-4 6.31V21H9v-3H8c-1.11 0-2-.89-2-2v-3H4.5c-.42 0-.66-.5-.42-.81L6 9.66A7.003 7.003 0 0 1 13 3m3 7c0-.16 0-.25-.06-.39l.89-.66c.05-.04.09-.18.05-.28l-.8-1.36c-.05-.09-.19-.14-.28-.09l-.99.42c-.18-.19-.42-.33-.65-.42L14 6.19c-.03-.14-.08-.19-.22-.19h-1.59c-.1 0-.19.05-.19.19l-.14 1.03c-.23.09-.47.23-.66.42l-1.03-.42c-.09-.05-.17 0-.23.09l-.8 1.36c-.05.14-.05.24.05.28l.84.66c0 .14-.03.28-.03.39 0 .13.03.27.03.41l-.84.65c-.1.05-.1.14-.05.24l.8 1.4c.06.1.14.1.23.1l.99-.43c.23.19.42.29.7.38l.14 1.08c0 .09.09.17.19.17h1.59c.14 0 .19-.08.22-.17l.16-1.08c.23-.09.47-.19.65-.37l.99.42c.09 0 .23 0 .28-.1l.8-1.4c.04-.1 0-.19-.05-.24l-.83-.65z"/></svg>

<?xml version="1.0" encoding="UTF-8"?><!DOCTYPE svg PUBLIC "-//W3C//DTD SVG 1.1//EN" "http://www.w3.org/Graphics/SVG/1.1/DTD/svg11.dtd"><svg xmlns="http://www.w3.org/2000/svg" xmlns:xlink="http://www.w3.org/1999/xlink" version="1.1" id="mdi-head-cog" width="24" height="24" viewBox="0 0 24 24"><path d="M13 8.58C13.78 8.58 14.44 9.19 14.44 10S13.78 11.44 13 11.44 11.58 10.78 11.58 10 12.19 8.58 13 8.58M13 3C16.88 3 20 6.14 20 10C20 12.8 18.37 15.19 16 16.31V21H9V18H8C6.89 18 6 17.11 6 16V13H4.5C4.08 13 3.84 12.5 4.08 12.19L6 9.66C6.19 5.95 9.23 3 13 3M16 10C16 9.84 16 9.75 15.94 9.61L16.83 8.95C16.88 8.91 16.92 8.77 16.88 8.67L16.08 7.31C16.03 7.22 15.89 7.17 15.8 7.22L14.81 7.64C14.63 7.45 14.39 7.31 14.16 7.22L14 6.19C13.97 6.05 13.92 6 13.78 6H12.19C12.09 6 12 6.05 12 6.19L11.86 7.22C11.63 7.31 11.39 7.45 11.2 7.64L10.17 7.22C10.08 7.17 10 7.22 9.94 7.31L9.14 8.67C9.09 8.81 9.09 8.91 9.19 8.95L10.03 9.61C10.03 9.75 10 9.89 10 10C10 10.13 10.03 10.27 10.03 10.41L9.19 11.06C9.09 11.11 9.09 11.2 9.14 11.3L9.94 12.7C10 12.8 10.08 12.8 10.17 12.8L11.16 12.37C11.39 12.56 11.58 12.66 11.86 12.75L12 13.83C12 13.92 12.09 14 12.19 14H13.78C13.92 14 13.97 13.92 14 13.83L14.16 12.75C14.39 12.66 14.63 12.56 14.81 12.38L15.8 12.8C15.89 12.8 16.03 12.8 16.08 12.7L16.88 11.3C16.92 11.2 16.88 11.11 16.83 11.06L16 10.41V10Z" /></svg>
